images/class_icons/mindthief.svg

<svg height="400" viewBox="0 0 400 400" width="400" xmlns="http://www.w3.org/2000/svg"><path d="m185.153 31.527c-.185.028-1.031.147-1.881.265-3.457.481-8.045 1.635-13.19 3.315l-3.046.995-2.665-.518c-11.763-2.285-21.89-1.783-32.964 1.634-3.868 1.194-6.008 1.736-10.077 2.553-17.936 3.601-28.707 9.227-35.232 18.405-1.875 2.637-1.931 2.691-3.349 3.281-23.089 9.594-40.815 26.926-45.986 44.966-.854 2.978-1.963 9.4-1.963 11.366 0 .263-.554.914-2.37 2.782-12.732 13.102-17.481 25.028-15.123 37.978l.11.605-1.083 1.184c-8.118 8.877-12.013 18.375-11.359 27.698.385 5.495 1.796 8.702 5.855 13.308l1.066 1.209-.159 1.008c-.547 3.462-.5 10.824.088 13.708 2.728 13.388 13.286 22.32 28.82 24.382 2.515.334 2.473.208.605 1.781-10.111 8.512-12.098 18.325-6.124 30.246 7.665 15.296 29.962 31.907 54.763 40.798 12.025 4.31 22.661 6.218 34.834 6.247l.907.003-.001 4.803c-.004 15.955-2.846 30.781-8.26 43.097-1.893 4.305-1.895 4.333-.318 3.419 4.076-2.364 14.355-10.181 19.059-14.495 14.51-13.305 21.333-22.725 27.306-37.695 3.639-9.124 5.04-15.985 4.923-24.121l-.049-3.426 1.545-.241c13.347-2.076 20.97-8.827 24.048-21.299.278-1.123.498-1.766.592-1.729.083.032.812.523 1.621 1.09 11.58 8.115 25.563 9.773 36.873 4.37l1.399-.668 1.038.599c6.032 3.479 17.078 4.533 26.812 2.558 10.676-2.166 18.565-7.149 22.724-14.352 4.377-7.58 6.137-13.27 6.14-19.841.001-5.038-.309-6.385-2.977-12.934-.275-.675-.218-.701 1.074-.486 4.614.767 9.689.121 15.438-1.966l2.021-.734 2.24.994c7.452 3.303 13.707 5.083 21.858 6.216 2.214.308 12.125.355 14.444.068 13.499-1.671 25.397-8.267 33.736-18.703 5.433-6.8 7.983-12.76 9.052-21.162.419-3.286.431-3.331 1.49-5.428 1.76-3.487 2.894-7.565 3.31-11.905.861-8.998-.146-19.247-2.78-28.283-4.654-15.973-11.64-26.137-21.792-31.704-1.968-1.079-1.72-.781-2.462-2.962-3.366-9.899-23.444-26.015-39.164-31.437-3.068-1.059-7.732-2.02-9.799-2.02-.112 0-.727-.795-1.369-1.771-6.716-10.201-16.634-17.952-26.695-20.859-2.76-.797-7.991-1.689-9.91-1.689-.59 0-.664-.05-2.149-1.422-5.385-4.975-9.09-7.555-15.378-10.706-12.847-6.436-29.948-9.478-44.676-7.946-3.748.389-3.58.409-6.517-.772-5.142-2.069-9.55-3.222-13.772-3.603-1.411-.127-10.363-.17-11.152-.054" fill-rule="evenodd"/></svg>

<svg id="svg" xmlns="http://www.w3.org/2000/svg" xmlns:xlink="http://www.w3.org/1999/xlink" width="400" height="400" viewBox="0, 0, 400,400"><g id="svgg"><path id="path0" d="M185.153 31.527 C 184.968 31.555,184.122 31.674,183.272 31.792 C 179.815 32.273,175.227 33.427,170.082 35.107 L 167.036 36.102 164.371 35.584 C 152.608 33.299,142.481 33.801,131.407 37.218 C 127.539 38.412,125.399 38.954,121.330 39.771 C 103.394 43.372,92.623 48.998,86.098 58.176 C 84.223 60.813,84.167 60.867,82.749 61.457 C 59.660 71.051,41.934 88.383,36.763 106.423 C 35.909 109.401,34.800 115.823,34.800 117.789 C 34.800 118.052,34.246 118.703,32.430 120.571 C 19.698 133.673,14.949 145.599,17.307 158.549 L 17.417 159.154 16.334 160.338 C 8.216 169.215,4.321 178.713,4.975 188.036 C 5.360 193.531,6.771 196.738,10.830 201.344 L 11.896 202.553 11.737 203.561 C 11.190 207.023,11.237 214.385,11.825 217.269 C 14.553 230.657,25.111 239.589,40.645 241.651 C 43.160 241.985,43.118 241.859,41.250 243.432 C 31.139 251.944,29.152 261.757,35.126 273.678 C 42.791 288.974,65.088 305.585,89.889 314.476 C 101.914 318.786,112.550 320.694,124.723 320.723 L 125.630 320.726 125.629 325.529 C 125.625 341.484,122.783 356.310,117.369 368.626 C 115.476 372.931,115.474 372.959,117.051 372.045 C 121.127 369.681,131.406 361.864,136.110 357.550 C 150.620 344.245,157.443 334.825,163.416 319.855 C 167.055 310.731,168.456 303.870,168.339 295.734 L 168.290 292.308 169.835 292.067 C 183.182 289.991,190.805 283.240,193.883 270.768 C 194.161 269.645,194.381 269.002,194.475 269.039 C 194.558 269.071,195.287 269.562,196.096 270.129 C 207.676 278.244,221.659 279.902,232.969 274.499 L 234.368 273.831 235.406 274.430 C 241.438 277.909,252.484 278.963,262.218 276.988 C 272.894 274.822,280.783 269.839,284.942 262.636 C 289.319 255.056,291.079 249.366,291.082 242.795 C 291.083 237.757,290.773 236.410,288.105 229.861 C 287.830 229.186,287.887 229.160,289.179 229.375 C 293.793 230.142,298.868 229.496,304.617 227.409 L 306.638 226.675 308.878 227.669 C 316.330 230.972,322.585 232.752,330.736 233.885 C 332.950 234.193,342.861 234.240,345.180 233.953 C 358.679 232.282,370.577 225.686,378.916 215.250 C 384.349 208.450,386.899 202.490,387.968 194.088 C 388.387 190.802,388.399 190.757,389.458 188.660 C 391.218 185.173,392.352 181.095,392.768 176.755 C 393.629 167.757,392.622 157.508,389.988 148.472 C 385.334 132.499,378.348 122.335,368.196 116.768 C 366.228 115.689,366.476 115.987,365.734 113.806 C 362.368 103.907,342.290 87.791,326.570 82.369 C 323.502 81.310,318.838 80.349,316.771 80.349 C 316.659 80.349,316.044 79.554,315.402 78.578 C 308.686 68.377,298.768 60.626,288.707 57.719 C 285.947 56.922,280.716 56.030,278.797 56.030 C 278.207 56.030,278.133 55.980,276.648 54.608 C 271.263 49.633,267.558 47.053,261.270 43.902 C 248.423 37.466,231.322 34.424,216.594 35.956 C 212.846 36.345,213.014 36.365,210.077 35.184 C 204.935 33.115,200.527 31.962,196.305 31.581 C 194.894 31.454,185.942 31.411,185.153 31.527 " stroke="none" fill="#000000" fill-rule="evenodd"></path></g></svg>
